icons/1_Primary/Qt.svg

<svg xmlns="http://www.w3.org/2000/svg" viewBox="0 0 1024 1024">
   <circle cx="512" cy="512" r="512" style="fill:#41cd52"/>
   <path d="M486.51 435.24c8.12 14.54 12.08 37.76 12.08 69.86 0 31.91-4 54.76-11.71 68.16-7.93 13.41-23 20.2-45.51 20.2s-37.76-7-45.69-20.58-11.9-36.44-11.9-68.16c0-31.91 4.15-54.95 12.27-69.49 8.31-14.54 23.41-21.71 45.32-21.71 22.1.01 37.02 7.19 45.14 21.72ZM789 308v331.17L712.15 716H235V384.83L311.85 308H789ZM500.48 612.36c13.6-9.06 23.22-22.28 29.27-39.65 5.85-17.18 8.87-39.84 8.87-68q0-64-21.71-94.6c-14.35-20.58-39.65-30.78-75.72-30.78-35.88 0-61.37 10.39-75.91 31s-21.9 52.11-21.9 94.6c0 42.3 7.18 73.45 21.53 93.09s39.84 29.46 76.28 29.46c9.82 0 17-.57 21.53-2.08l31.16 51.17 36.06-16.8Zm174.66 6.23-1.7-30.59-28.7 1.13c-8.5 0-14-2.27-16-7s-3.21-14.16-3.21-28.51v-77.21h48.34v-32.48h-48.39v-50.79h-38v50.79h-26.76v32.67h26.62V558c0 25.3 3.78 42.48 11.14 51.55s21 13.6 40.79 13.6c8.3-.03 20.2-1.54 35.87-4.56Z" style="fill:#fff"/>
</svg>

<svg width="1024" height="1024" viewBox="0 0 1024 1024" fill="none" xmlns="http://www.w3.org/2000/svg">
<g clip-path="url(#clip0_2_3261)">
<path d="M512 1024C794.77 1024 1024 794.77 1024 512C1024 229.23 794.77 0 512 0C229.23 0 0 229.23 0 512C0 794.77 229.23 1024 512 1024Z" fill="#98DC9A"/>
<path d="M486.51 435.24C494.63 449.78 498.59 473 498.59 505.1C498.59 537.01 494.59 559.86 486.88 573.26C478.95 586.67 463.88 593.46 441.37 593.46C418.86 593.46 403.61 586.46 395.68 572.88C387.75 559.3 383.78 536.44 383.78 504.72C383.78 472.81 387.93 449.77 396.05 435.23C404.36 420.69 419.46 413.52 441.37 413.52C463.47 413.53 478.39 420.71 486.51 435.24ZM789 308V639.17L712.15 716H235V384.83L311.85 308H789ZM500.48 612.36C514.08 603.3 523.7 590.08 529.75 572.71C535.6 555.53 538.62 532.87 538.62 504.71C538.62 462.043 531.383 430.51 516.91 410.11C502.56 389.53 477.26 379.33 441.19 379.33C405.31 379.33 379.82 389.72 365.28 410.33C350.74 430.94 343.38 462.44 343.38 504.93C343.38 547.23 350.56 578.38 364.91 598.02C379.26 617.66 404.75 627.48 441.19 627.48C451.01 627.48 458.19 626.91 462.72 625.4L493.88 676.57L529.94 659.77L500.48 612.36ZM675.14 618.59L673.44 588L644.74 589.13C636.24 589.13 630.74 586.86 628.74 582.13C626.74 577.4 625.53 567.97 625.53 553.62V476.41H673.87V443.93H625.48V393.14H587.48V443.93H560.72V476.6H587.34V558C587.34 583.3 591.12 600.48 598.48 609.55C605.84 618.62 619.48 623.15 639.27 623.15C647.57 623.12 659.47 621.61 675.14 618.59Z" fill="white"/>
</g>
<defs>
<clipPath id="clip0_2_3261">
<rect width="1024" height="1024" fill="white"/>
</clipPath>
</defs>
</svg>
